X: 11613
M: C
L: 1/16
K: Eb
e4 (d3c) B4 (dc)(BA) | G4 (F3G) E6 |]
g2 |\
(f3e)(d3c) (c3B)(A3G) | (c3B) (c3d/e/) (A2G2)(F3E) |\
(A3G) (A3B/c/) (BG3)F2E2 | G4 (F3G) F4 (g3a) |\
(bg3) (e3f/g/) c6 e2 | (cBAG) B2d2 e6 c2 |\
(BG3)F3E (F3G) (A3B/c/) | G4 (F3G) E4 |]


